X:1
T:Jack Robinson 
S:http://lesters-tune-a-day.blogspot.co.uk/2013/07/tune-326-jack-robinson.html
N:From the repertoire of fiddler William Tilbury who lived at Pitch Place, midway between Churt and Thursley in Surrey.
M:4/4 
L:1/8 
K:G
FE |\
D2G2 D2BB | c2c2 A4   | FGA2 FGA2 | GBde d4 |\
edce d2B2 | cBAB A2G2 | D2G2 FGAB | A2G2 G2 :|
|: Bc |\
d2B2 cde2 | e2A2 A2Bc | d2B2 cde2 | edcB AcBA |\
GABc d2B2 | cBAB A2G2 | D2G2 FGAB | A2G2 G2 :|
